Sources/FrostedUI/Resources/Icons.xcassets/strikethrough16.imageset/strikethrough-16.svg

<svg width="16" height="16" viewBox="0 0 16 16" fill="none" xmlns="http://www.w3.org/2000/svg" data-fui-icon="true">
  <path
    d="M12.4318 10.2494C12.5753 10.2494 12.7 10.3509 12.718 10.4933C12.7386 10.6559 12.7492 10.8245 12.7492 10.9993C12.7492 12.7913 11.0736 14.7489 8.00049 14.7491C6.40585 14.749 5.28437 14.248 4.52121 13.5763C3.77281 12.9174 3.41995 12.1405 3.26445 11.6536C3.13856 11.2592 3.35646 10.8364 3.75075 10.7103C4.14518 10.5846 4.56812 10.8032 4.69405 11.1976C4.79511 11.5138 5.02768 12.0237 5.51236 12.4504C5.98295 12.8645 6.74499 13.2491 8.00049 13.2492C10.4078 13.249 11.2493 11.8092 11.2493 10.9993C11.2493 10.8812 11.2422 10.7731 11.2294 10.6739C11.2024 10.4647 11.3518 10.2494 11.5627 10.2494H12.4318ZM8.00049 1.24992C11.229 1.25012 12.4987 3.21868 12.7336 4.34739C12.8176 4.75248 12.5575 5.14939 12.1526 5.23406C11.7472 5.31831 11.3493 5.05745 11.2649 4.65206C11.1652 4.17386 10.4729 2.75002 8.00049 2.74983C5.59259 2.7501 4.74971 4.19049 4.74971 4.99969C4.74971 5.44674 4.84767 5.75187 4.98309 5.97327C5.12004 6.19693 5.32658 6.38556 5.61782 6.5494C6.21905 6.88737 7.05026 7.05718 8.04519 7.24438C8.06346 7.24781 8.0821 7.24956 8.10069 7.24956H15.25C15.6638 7.25008 16 7.58565 16 7.99951C16 8.41337 15.6638 8.74894 15.25 8.74947H0.750931C0.336742 8.74947 0 8.4137 0 7.99951C0 7.58532 0.336742 7.24956 0.750931 7.24956H3.46079C3.69522 7.24956 3.82627 6.95636 3.70388 6.75642C3.40196 6.26307 3.2498 5.67735 3.2498 4.99969C3.2498 3.20714 4.92816 1.25021 8.00049 1.24992Z"
    fill="currentColor"
  />
</svg>

<svg xmlns="http://www.w3.org/2000/svg" width="16" height="16" fill="none" data-fui-icon="true" viewBox="0 0 16 16"><path fill="currentColor" d="M12.432 10.25c.143 0 .268.1.286.243q.03.245.031.506c0 1.792-1.675 3.75-4.749 3.75-1.594 0-2.716-.501-3.479-1.173a4.35 4.35 0 0 1-1.257-1.922.751.751 0 0 1 1.43-.456c.101.316.334.826.818 1.252.471.415 1.233.8 2.488.8 2.408-.001 3.25-1.44 3.25-2.25q-.001-.178-.02-.326c-.028-.21.122-.425.333-.425zM8 1.25c3.229 0 4.499 1.969 4.734 3.097a.75.75 0 0 1-1.47.305C11.166 4.174 10.474 2.75 8 2.75 5.593 2.75 4.75 4.19 4.75 5c0 .447.098.752.233.973.137.224.344.413.635.576.601.338 1.432.508 2.427.695a.3.3 0 0 0 .056.006h7.149a.75.75 0 0 1 0 1.5H.75a.75.75 0 1 1 0-1.5h2.71c.235 0 .366-.294.244-.494Q3.25 6.016 3.25 5c0-1.793 1.678-3.75 4.75-3.75"/></svg>
